icons/printer-cloud-line.svg

<svg xmlns="http://www.w3.org/2000/svg" width="24" height="24" fill="none"><g clip-path="url(#a)"><g><path fill="#121212" d="M17 2C17.2652 2 17.5196 2.10536 17.7071 2.29289C17.8946 2.48043 18 2.73478 18 3V7H21C21.2652 7 21.5196 7.10536 21.7071 7.29289C21.8946 7.48043 22 7.73478 22 8L22.001 13.346C21.4863 12.6102 20.7998 12.0112 20.001 11.601L20 9H4V17H6V16C6 15.7348 6.10536 15.4804 6.29289 15.2929C6.48043 15.1054 6.73478 15 7 15H12.207L12.136 15.283L12.106 15.303C11.4626 15.735 10.9343 16.3175 10.567 17H8V20H10.06C10.1744 20.7208 10.454 21.4053 10.877 22H7C6.73478 22 6.48043 21.8946 6.29289 21.7071C6.10536 21.5196 6 21.2652 6 21V19H3C2.73478 19 2.48043 18.8946 2.29289 18.7071C2.10536 18.5196 2 18.2652 2 18V8C2 7.73478 2.10536 7.48043 2.29289 7.29289C2.48043 7.10536 2.73478 7 3 7H6V3C6 2.73478 6.10536 2.48043 6.29289 2.29289C6.48043 2.10536 6.73478 2 7 2H17ZM17.5 13C18.4283 13 19.3185 13.3687 19.9749 14.0251C20.6313 14.6815 21 15.5717 21 16.5L20.999 16.603C21.6246 16.7793 22.1675 17.1714 22.5315 17.7099C22.8955 18.2484 23.057 18.8983 22.9874 19.5446C22.9178 20.1908 22.6215 20.7914 22.1511 21.24C21.6808 21.6886 21.0668 21.9561 20.418 21.995L20.25 22H14.75L14.582 21.995C13.9333 21.9557 13.3196 21.6879 12.8495 21.2392C12.3795 20.7905 12.0835 20.1898 12.0142 19.5437C11.9448 18.8975 12.1064 18.2477 12.4705 17.7094C12.8346 17.1711 13.3775 16.7792 14.003 16.603L14 16.5C14 15.5717 14.3687 14.6815 15.0251 14.0251C15.6815 13.3687 16.5717 13 17.5 13ZM17.5 15C17.1516 14.9999 16.814 15.1211 16.5452 15.3429C16.2764 15.5646 16.0932 15.8729 16.027 16.215L16.007 16.355L16 16.5V18.12L14.556 18.526C14.3896 18.5704 14.2436 18.6708 14.1424 18.8102C14.0413 18.9496 13.9912 19.1195 14.0005 19.2915C14.0099 19.4635 14.0782 19.627 14.1939 19.7545C14.3097 19.8821 14.4658 19.966 14.636 19.992L14.745 20H20.255C20.4363 19.9986 20.611 19.9316 20.7467 19.8113C20.8824 19.6911 20.97 19.5257 20.9932 19.3459C21.0163 19.1661 20.9736 18.9839 20.8728 18.8332C20.772 18.6824 20.62 18.5733 20.445 18.526L19.432 18.243L19 18.12V16.5L18.993 16.356C18.9572 15.9848 18.7844 15.6403 18.5084 15.3896C18.2324 15.1389 17.8729 15 17.5 15ZM8 10V12H5V10H8ZM16 4H8V7H16V4Z"/></g></g><defs><clipPath id="a"><rect width="24" height="24" fill="white"/></clipPath></defs></svg>

<svg width="24" height="24" fill="none" xmlns="http://www.w3.org/2000/svg"><g clip-path="url(#a)"><path d="M17 2a1 1 0 0 1 1 1v4h3a1 1 0 0 1 1 1l.001 5.346a5.515 5.515 0 0 0-2-1.745L20 9H4v8h2v-1a1 1 0 0 1 1-1h5.207l-.071.283-.03.02A4.763 4.763 0 0 0 10.567 17H8v3h2.06a4.73 4.73 0 0 0 .817 2H7a1 1 0 0 1-1-1v-2H3a1 1 0 0 1-1-1V8a1 1 0 0 1 1-1h3V3a1 1 0 0 1 1-1h10Zm.5 11a3.5 3.5 0 0 1 3.5 3.5l-.001.103a2.75 2.75 0 0 1-.581 5.392L20.25 22h-5.5l-.168-.005a2.75 2.75 0 0 1-.579-5.392L14 16.5a3.5 3.5 0 0 1 3.5-3.5Zm0 2a1.5 1.5 0 0 0-1.473 1.215l-.02.14L16 16.5v1.62l-1.444.406a.75.75 0 0 0 .08 1.466l.109.008h5.51a.75.75 0 0 0 .19-1.474l-1.013-.283L19 18.12V16.5l-.007-.144A1.5 1.5 0 0 0 17.5 15ZM8 10v2H5v-2h3Zm8-6H8v3h8V4Z" /></g><defs><clipPath id="a"><path fill="#fff" d="M0 0h24v24H0z"/></clipPath></defs></svg>
